Newaita-dark/actions/16/object-flip-vertical.svg

<svg height="16" viewBox="0 0 16 16" width="16" xmlns="http://www.w3.org/2000/svg"><g fill="#e0e0e0"><path d="m11.578125 13.355469c0 .734375-.589844 1.324219-1.324219 1.324219h-4.632812c-.730469 0-1.320313-.589844-1.320313-1.324219v-2.644531c0-.734376.589844-1.324219 1.320313-1.324219h4.632812c.734375 0 1.324219.589843 1.324219 1.324219zm0 0"/><path d="m11.578125 5.417969c0 .730469-.589844 1.320312-1.324219 1.320312h-4.632812c-.730469 0-1.320313-.589843-1.320313-1.320312v-2.648438c0-.730469.589844-1.320312 1.320313-1.320312h4.632812c.734375 0 1.324219.589843 1.324219 1.320312zm-1.324219-.664063v-1.320312c0-.367188-.296875-.664063-.660156-.664063h-3.308594c-.367187 0-.664062.296875-.664062.664063v1.320312c0 .367188.296875.664063.664062.664063h3.308594c.363281 0 .660156-.296875.660156-.664063zm0 0"/><path d="m14.554688 4.09375c0 .367188-.296876.660156-.664063.660156-.363281 0-.660156-.292968-.660156-.660156 0-.363281.296875-.660156.660156-.660156.367187 0 .664063.296875.664063.660156zm0 0"/><path d="m2.644531 4.09375c0 .367188-.292969.660156-.660156.660156-.363281 0-.660156-.292968-.660156-.660156 0-.363281.296875-.660156.660156-.660156.367187 0 .660156.296875.660156.660156zm0 0"/><path d="m14.554688 12.03125c0 .367188-.296876.664062-.664063.664062-.363281 0-.660156-.296874-.660156-.664062 0-.363281.296875-.660156.660156-.660156.367187 0 .664063.296875.664063.660156zm0 0"/><path d="m2.644531 12.03125c0 .367188-.292969.664062-.660156.664062-.363281 0-.660156-.296874-.660156-.664062 0-.363281.296875-.660156.660156-.660156.367187 0 .660156.296875.660156.660156zm0 0"/><path d="m9.921875 8.0625c0 .367188-.296875.664062-.660156.664062-.367188 0-.660157-.296874-.660157-.664062 0-.363281.292969-.660156.660157-.660156.363281 0 .660156.296875.660156.660156zm0 0"/><path d="m7.277344 8.0625c0 .367188-.296875.664062-.664063.664062-.363281 0-.660156-.296874-.660156-.664062 0-.363281.296875-.660156.660156-.660156.367188 0 .664063.296875.664063.660156zm0 0"/></g></svg>

<?xml version="1.0" encoding="UTF-8"?>
<svg xmlns="http://www.w3.org/2000/svg" xmlns:xlink="http://www.w3.org/1999/xlink" width="16px" height="16px" viewBox="0 0 16 16" version="1.1">
<g id="surface1">
<path style=" stroke:none;fill-rule:nonzero;fill:rgb(87.843138%,87.843138%,87.843138%);fill-opacity:1;" d="M 11.578125 13.355469 C 11.578125 14.089844 10.988281 14.679688 10.253906 14.679688 L 5.621094 14.679688 C 4.890625 14.679688 4.300781 14.089844 4.300781 13.355469 L 4.300781 10.710938 C 4.300781 9.976562 4.890625 9.386719 5.621094 9.386719 L 10.253906 9.386719 C 10.988281 9.386719 11.578125 9.976562 11.578125 10.710938 Z M 11.578125 13.355469 "/>
<path style=" stroke:none;fill-rule:nonzero;fill:rgb(87.843138%,87.843138%,87.843138%);fill-opacity:1;" d="M 11.578125 5.417969 C 11.578125 6.148438 10.988281 6.738281 10.253906 6.738281 L 5.621094 6.738281 C 4.890625 6.738281 4.300781 6.148438 4.300781 5.417969 L 4.300781 2.769531 C 4.300781 2.039062 4.890625 1.449219 5.621094 1.449219 L 10.253906 1.449219 C 10.988281 1.449219 11.578125 2.039062 11.578125 2.769531 Z M 10.253906 4.753906 L 10.253906 3.433594 C 10.253906 3.066406 9.957031 2.769531 9.59375 2.769531 L 6.285156 2.769531 C 5.917969 2.769531 5.621094 3.066406 5.621094 3.433594 L 5.621094 4.753906 C 5.621094 5.121094 5.917969 5.417969 6.285156 5.417969 L 9.59375 5.417969 C 9.957031 5.417969 10.253906 5.121094 10.253906 4.753906 Z M 10.253906 4.753906 "/>
<path style=" stroke:none;fill-rule:nonzero;fill:rgb(87.843138%,87.843138%,87.843138%);fill-opacity:1;" d="M 14.554688 4.09375 C 14.554688 4.460938 14.257812 4.753906 13.890625 4.753906 C 13.527344 4.753906 13.230469 4.460938 13.230469 4.09375 C 13.230469 3.730469 13.527344 3.433594 13.890625 3.433594 C 14.257812 3.433594 14.554688 3.730469 14.554688 4.09375 Z M 14.554688 4.09375 "/>
<path style=" stroke:none;fill-rule:nonzero;fill:rgb(87.843138%,87.843138%,87.843138%);fill-opacity:1;" d="M 2.644531 4.09375 C 2.644531 4.460938 2.351562 4.753906 1.984375 4.753906 C 1.621094 4.753906 1.324219 4.460938 1.324219 4.09375 C 1.324219 3.730469 1.621094 3.433594 1.984375 3.433594 C 2.351562 3.433594 2.644531 3.730469 2.644531 4.09375 Z M 2.644531 4.09375 "/>
<path style=" stroke:none;fill-rule:nonzero;fill:rgb(87.843138%,87.843138%,87.843138%);fill-opacity:1;" d="M 14.554688 12.03125 C 14.554688 12.398438 14.257812 12.695312 13.890625 12.695312 C 13.527344 12.695312 13.230469 12.398438 13.230469 12.03125 C 13.230469 11.667969 13.527344 11.371094 13.890625 11.371094 C 14.257812 11.371094 14.554688 11.667969 14.554688 12.03125 Z M 14.554688 12.03125 "/>
<path style=" stroke:none;fill-rule:nonzero;fill:rgb(87.843138%,87.843138%,87.843138%);fill-opacity:1;" d="M 2.644531 12.03125 C 2.644531 12.398438 2.351562 12.695312 1.984375 12.695312 C 1.621094 12.695312 1.324219 12.398438 1.324219 12.03125 C 1.324219 11.667969 1.621094 11.371094 1.984375 11.371094 C 2.351562 11.371094 2.644531 11.667969 2.644531 12.03125 Z M 2.644531 12.03125 "/>
<path style=" stroke:none;fill-rule:nonzero;fill:rgb(87.843138%,87.843138%,87.843138%);fill-opacity:1;" d="M 9.921875 8.0625 C 9.921875 8.429688 9.625 8.726562 9.261719 8.726562 C 8.894531 8.726562 8.601562 8.429688 8.601562 8.0625 C 8.601562 7.699219 8.894531 7.402344 9.261719 7.402344 C 9.625 7.402344 9.921875 7.699219 9.921875 8.0625 Z M 9.921875 8.0625 "/>
<path style=" stroke:none;fill-rule:nonzero;fill:rgb(87.843138%,87.843138%,87.843138%);fill-opacity:1;" d="M 7.277344 8.0625 C 7.277344 8.429688 6.980469 8.726562 6.613281 8.726562 C 6.25 8.726562 5.953125 8.429688 5.953125 8.0625 C 5.953125 7.699219 6.25 7.402344 6.613281 7.402344 C 6.980469 7.402344 7.277344 7.699219 7.277344 8.0625 Z M 7.277344 8.0625 "/>
</g>
</svg>
